my-app/static/miika.svg

<svg width="264px" height="280px" viewBox="0 0 264 280" version="1.1" xmlns="http://www.w3.org/2000/svg" xmlns:xlink="http://www.w3.org/1999/xlink"><desc>Created with getavataaars.com</desc><defs><circle id="react-path-1" cx="120" cy="120" r="120"></circle><path d="M12,160 C12,226.27417 65.72583,280 132,280 C198.27417,280 252,226.27417 252,160 L264,160 L264,-1.42108547e-14 L-3.19744231e-14,-1.42108547e-14 L-3.19744231e-14,160 L12,160 Z" id="react-path-2"></path><path d="M124,144.610951 L124,163 L128,163 L128,163 C167.764502,163 200,195.235498 200,235 L200,244 L0,244 L0,235 C-4.86974701e-15,195.235498 32.235498,163 72,163 L72,163 L76,163 L76,144.610951 C58.7626345,136.422372 46.3722246,119.687011 44.3051388,99.8812385 C38.4803105,99.0577866 34,94.0521096 34,88 L34,74 C34,68.0540074 38.3245733,63.1180731 44,62.1659169 L44,56 L44,56 C44,25.072054 69.072054,5.68137151e-15 100,0 L100,0 L100,0 C130.927946,-5.68137151e-15 156,25.072054 156,56 L156,62.1659169 C161.675427,63.1180731 166,68.0540074 166,74 L166,88 C166,94.0521096 161.51969,99.0577866 155.694861,99.8812385 C153.627775,119.687011 141.237365,136.422372 124,144.610951 Z" id="react-path-3"></path></defs><g id="Avataaar" stroke="none" stroke-width="1" fill="none" fill-rule="evenodd"><g transform="translate(-825.000000, -1100.000000)" id="Avataaar/Circle"><g transform="translate(825.000000, 1100.000000)"><g id="Circle" stroke-width="1" fill-rule="evenodd" transform="translate(12.000000, 40.000000)"><mask id="react-mask-4" fill="white"><use xlink:href="#react-path-1"></use></mask><use id="Circle-Background" fill="#E6E6E6" xlink:href="#react-path-1"></use><g id="Color/Palette/Blue-01" mask="url(#react-mask-4)" fill="#65C9FF"><rect id="🖍Color" x="0" y="0" width="240" height="240"></rect></g></g><mask id="react-mask-5" fill="white"><use xlink:href="#react-path-2"></use></mask><g id="Mask"></g><g id="Avataaar" stroke-width="1" fill-rule="evenodd" mask="url(#react-mask-5)"><g id="Body" transform="translate(32.000000, 36.000000)"><mask id="react-mask-6" fill="white"><use xlink:href="#react-path-3"></use></mask><use fill="#D0C6AC" xlink:href="#react-path-3"></use><g id="Skin/👶🏽-03-Brown" mask="url(#react-mask-6)" fill="#EDB98A"><g transform="translate(0.000000, 0.000000)" id="Color"><rect x="0" y="0" width="264" height="280"></rect></g></g><path d="M156,79 L156,102 C156,132.927946 130.927946,158 100,158 C69.072054,158 44,132.927946 44,102 L44,79 L44,94 C44,124.927946 69.072054,150 100,150 C130.927946,150 156,124.927946 156,94 L156,79 Z" id="Neck-Shadow" fill-opacity="0.100000001" fill="#000000" mask="url(#react-mask-6)"></path></g><g id="Clothing/Hoodie" transform="translate(0.000000, 170.000000)"><defs><path d="M108,13.0708856 C90.0813006,15.075938 76.2798424,20.5518341 76.004203,34.6449676 C50.1464329,45.5680933 32,71.1646257 32,100.999485 L32,100.999485 L32,110 L232,110 L232,100.999485 C232,71.1646257 213.853567,45.5680933 187.995797,34.6449832 C187.720158,20.5518341 173.918699,15.075938 156,13.0708856 L156,32 L156,32 C156,45.254834 145.254834,56 132,56 L132,56 C118.745166,56 108,45.254834 108,32 L108,13.0708856 Z" id="react-path-233"></path></defs><mask id="react-mask-234" fill="white"><use xlink:href="#react-path-233"></use></mask><use id="Hoodie" fill="#B7C1DB" fill-rule="evenodd" xlink:href="#react-path-233"></use><g id="Color/Palette/Gray-01" mask="url(#react-mask-234)" fill-rule="evenodd" fill="#E6E6E6"><rect id="🖍Color" x="0" y="0" width="264" height="110"></rect></g><path d="M102,61.7390531 L102,110 L95,110 L95,58.1502625 C97.2037542,59.4600576 99.5467694,60.6607878 102,61.7390531 Z M169,58.1502625 L169,98.5 C169,100.432997 167.432997,102 165.5,102 C163.567003,102 162,100.432997 162,98.5 L162,61.7390531 C164.453231,60.6607878 166.796246,59.4600576 169,58.1502625 Z" id="Straps" fill="#F4F4F4" fill-rule="evenodd" mask="url(#react-mask-234)"></path><path d="M90.9601329,12.7243537 C75.9093095,15.5711782 65.5,21.2428847 65.5,32.3076923 C65.5,52.0200095 98.5376807,68 132,68 C165.462319,68 198.5,52.0200095 198.5,32.3076923 C198.5,21.2428847 188.09069,15.5711782 173.039867,12.7243537 C182.124921,16.0744598 188,21.7060546 188,31.0769231 C188,51.4689754 160.178795,68 132,68 C103.821205,68 76,51.4689754 76,31.0769231 C76,21.7060546 81.8750795,16.0744598 90.9601329,12.7243537 Z" id="Shadow" fill-opacity="0.16" fill="#000000" fill-rule="evenodd" mask="url(#react-mask-234)"></path></g><g id="Face" transform="translate(76.000000, 82.000000)" fill="#000000"><g id="Mouth/Default" transform="translate(2.000000, 52.000000)" fill-opacity="0.699999988"><path d="M40,15 C40,22.7319865 46.2680135,29 54,29 L54,29 C61.7319865,29 68,22.7319865 68,15" id="Mouth"></path></g><g id="Nose/Default" transform="translate(28.000000, 40.000000)" fill-opacity="0.16"><path d="M16,8 C16,12.418278 21.372583,16 28,16 L28,16 C34.627417,16 40,12.418278 40,8" id="Nose"></path></g><g id="Eyes/Default-😀" transform="translate(0.000000, 8.000000)" fill-opacity="0.599999964"><circle id="Eye" cx="30" cy="22" r="6"></circle><circle id="Eye" cx="82" cy="22" r="6"></circle></g><g id="Eyebrow/Outline/Default" fill-opacity="0.599999964"><g id="I-Browse" transform="translate(12.000000, 6.000000)"><path d="M3.63024536,11.1585767 C7.54515501,5.64986673 18.2779197,2.56083721 27.5230268,4.83118046 C28.5957248,5.0946055 29.6788665,4.43856013 29.9422916,3.36586212 C30.2057166,2.2931641 29.5496712,1.21002236 28.4769732,0.94659732 C17.7403633,-1.69001789 5.31209962,1.88699832 0.369754639,8.84142326 C-0.270109626,9.74178291 -0.0589363917,10.9903811 0.84142326,11.6302454 C1.74178291,12.2701096 2.9903811,12.0589364 3.63024536,11.1585767 Z" id="Eyebrow" fill-rule="nonzero"></path><path d="M61.6302454,11.1585767 C65.545155,5.64986673 76.2779197,2.56083721 85.5230268,4.83118046 C86.5957248,5.0946055 87.6788665,4.43856013 87.9422916,3.36586212 C88.2057166,2.2931641 87.5496712,1.21002236 86.4769732,0.94659732 C75.7403633,-1.69001789 63.3120996,1.88699832 58.3697546,8.84142326 C57.7298904,9.74178291 57.9410636,10.9903811 58.8414233,11.6302454 C59.7417829,12.2701096 60.9903811,12.0589364 61.6302454,11.1585767 Z" id="Eyebrow" fill-rule="nonzero" transform="translate(73.000154, 6.039198) scale(-1, 1) translate(-73.000154, -6.039198) "></path></g></g></g><g id="Top" stroke-width="1" fill-rule="evenodd"><defs><rect id="react-path-251" x="0" y="0" width="264" height="280"></rect><path d="M167.308863,35.006118 C147.121091,23.3065109 127.128954,25.2219854 112.036894,29.0299707 C96.9448338,32.8379559 88.0168242,43.6513048 80.3566792,59.6480618 C76.5956048,67.5028569 74.3660182,76.7914798 74.0230569,85.4813651 C73.8884429,88.8932666 74.3484305,92.415154 75.267729,95.7003546 C75.6049405,96.9061873 77.4232441,101.086987 77.9224658,97.70885 C78.0885348,96.584253 77.4804043,95.0327505 77.4215529,93.8376154 C77.3444374,92.2693977 77.4273028,90.6807875 77.5341822,89.1149098 C77.7340739,86.1874141 78.2559568,83.3154127 79.1847257,80.524647 C80.5119249,76.5367405 82.2013644,72.212859 84.7874413,68.8480942 C91.1883705,60.5205939 102.268658,60.045883 111.066257,55.4635848 C110.302881,56.8686624 107.359637,59.1432635 108.379389,60.7268592 C109.083576,61.8207003 111.749474,61.4890712 113.022219,61.4539693 C116.370996,61.3623702 119.734993,60.7796791 123.042844,60.306974 C128.255923,59.5618115 133.140585,58.0517626 138.046555,56.2181078 C142.06299,54.7164165 146.650012,53.3257139 149.66868,50.1404701 C154.539813,55.1881187 160.809849,59.9345599 167.070414,63.1428706 C172.68835,66.0222267 181.748751,67.461069 185.182761,73.3006826 C189.2479,80.2147477 187.37751,88.7073939 188.619138,96.2008069 C189.091302,99.05041 190.164155,98.986558 190.751315,96.4378281 C191.748406,92.1082634 192.219217,87.6102098 191.901961,83.1592929 C191.183568,73.1114668 187.496636,46.7057251 167.308863,35.006118 Z" id="react-path-250"></path><filter x="-0.8%" y="-2.0%" width="101.5%" height="108.0%" filterUnits="objectBoundingBox" id="react-filter-247"><feOffset dx="0" dy="2" in="SourceAlpha" result="shadowOffsetOuter1"></feOffset><feColorMatrix values="0 0 0 0 0   0 0 0 0 0   0 0 0 0 0  0 0 0 0.16 0" type="matrix" in="shadowOffsetOuter1" result="shadowMatrixOuter1"></feColorMatrix><feMerge><feMergeNode in="shadowMatrixOuter1"></feMergeNode><feMergeNode in="SourceGraphic"></feMergeNode></feMerge></filter></defs><mask id="react-mask-249" fill="white"><use xlink:href="#react-path-251"></use></mask><g id="Mask"></g><g id="Top/Short-Hair/Short-Round" mask="url(#react-mask-249)"><g transform="translate(-1.000000, 0.000000)"><mask id="react-mask-248" fill="white"><use xlink:href="#react-path-250"></use></mask><use id="Short-Hair" stroke="none" fill="#28354B" fill-rule="evenodd" xlink:href="#react-path-250"></use><g id="Skin/👶🏽-03-Brown" mask="url(#react-mask-248)" fill="#B58143"><g transform="translate(0.000000, 0.000000) " id="Color"><rect x="0" y="0" width="264" height="280"></rect></g></g></g></g></g></g></g></g></g></svg>

<?xml version="1.0" encoding="UTF-8" standalone="no"?>
<svg
   width="264"
   height="280"
   viewBox="0 0 264 280"
   version="1.1"
   id="svg11"
   sodipodi:docname="miika.svg"
   inkscape:export-filename="miika.png"
   inkscape:export-xdpi="96"
   inkscape:export-ydpi="96"
   xmlns:inkscape="http://www.inkscape.org/namespaces/inkscape"
   xmlns:sodipodi="http://sodipodi.sourceforge.net/DTD/sodipodi-0.dtd"
   xmlns:xlink="http://www.w3.org/1999/xlink"
   xmlns="http://www.w3.org/2000/svg"
   xmlns:svg="http://www.w3.org/2000/svg">
  <sodipodi:namedview
     id="namedview11"
     pagecolor="#ffffff"
     bordercolor="#000000"
     borderopacity="0.25"
     inkscape:showpageshadow="2"
     inkscape:pageopacity="0.0"
     inkscape:pagecheckerboard="0"
     inkscape:deskcolor="#d1d1d1" />
  <desc
     id="desc1">Created with getavataaars.com</desc>
  <defs
     id="defs1">
    <circle
       id="react-path-1"
       cx="120"
       cy="120"
       r="120" />
    <path
       d="m 12,160 c 0,66.27417 53.72583,120 120,120 66.27417,0 120,-53.72583 120,-120 h 12 V 0 H 0 v 160 z"
       id="react-path-2" />
    <path
       d="M 124,144.61095 V 163 h 4 v 0 c 39.7645,0 72,32.2355 72,72 v 9 H 0 v -9 c 0,-39.7645 32.235498,-72 72,-72 v 0 h 4 V 144.61095 C 58.762634,136.42237 46.372225,119.68701 44.305139,99.881238 38.480311,99.057787 34,94.05211 34,88 V 74 C 34,68.054007 38.324573,63.118073 44,62.165917 V 56 56 C 44,25.072054 69.072054,0 100,0 v 0 0 c 30.92795,0 56,25.072054 56,56 v 6.165917 c 5.67543,0.952156 10,5.88809 10,11.834083 v 14 c 0,6.05211 -4.48031,11.057787 -10.30514,11.881238 C 153.62778,119.68701 141.23736,136.42237 124,144.61095 Z"
       id="react-path-3" />
  </defs>
  <g
     id="g11"
     stroke="none"
     stroke-width="1"
     fill="none"
     fill-rule="evenodd">
    <g
       transform="translate(-825,-1100)"
       id="Avataaar/Circle">
      <g
         transform="translate(825,1100)"
         id="g10">
        <g
           id="Circle"
           stroke-width="1"
           fill-rule="evenodd"
           transform="translate(12,40)">
          <mask
             id="react-mask-4"
             fill="#ffffff">
            <use
               xlink:href="#react-path-1"
               id="use1" />
          </mask>
          <use
             id="Circle-Background"
             fill="#e6e6e6"
             xlink:href="#react-path-1" />
          <g
             id="Color/Palette/Blue-01"
             mask="url(#react-mask-4)"
             fill="#65c9ff">
            <rect
               id="🖍Color"
               x="0"
               y="0"
               width="240"
               height="240"
               inkscape:label="🖍Color"
               style="fill:#588157;fill-opacity:1" />
          </g>
        </g>
        <mask
           id="react-mask-5"
           fill="#ffffff">
          <use
             xlink:href="#react-path-2"
             id="use2" />
        </mask>
        <g
           id="Mask" />
        <g
           id="Avataaar"
           stroke-width="1"
           fill-rule="evenodd"
           mask="url(#react-mask-5)">
          <g
             id="Body"
             transform="translate(32,36)">
            <mask
               id="react-mask-6"
               fill="#ffffff">
              <use
                 xlink:href="#react-path-3"
                 id="use3" />
            </mask>
            <use
               fill="#d0c6ac"
               xlink:href="#react-path-3"
               id="use4" />
            <g
               id="Skin/👶🏽-03-Brown"
               mask="url(#react-mask-6)"
               fill="#edb98a">
              <g
                 id="Color">
                <rect
                   x="0"
                   y="0"
                   width="264"
                   height="280"
                   id="rect4" />
              </g>
            </g>
            <path
               d="m 156,79 v 23 c 0,30.92795 -25.07205,56 -56,56 -30.927946,0 -56,-25.07205 -56,-56 V 79 94 c 0,30.92795 25.072054,56 56,56 30.92795,0 56,-25.07205 56,-56 z"
               id="Neck-Shadow"
               fill-opacity="0.1"
               fill="#000000"
               mask="url(#react-mask-6)" />
          </g>
          <g
             id="Clothing/Hoodie"
             transform="translate(0,170)">
            <defs
               id="defs4">
              <path
                 d="M 108,13.070886 C 90.081301,15.075938 76.279842,20.551834 76.004203,34.644968 50.146433,45.568093 32,71.164626 32,100.99949 v 0 V 110 h 200 v -9.00051 C 232,71.164626 213.85357,45.568093 187.9958,34.644983 187.72016,20.551834 173.9187,15.075938 156,13.070886 V 32 32 c 0,13.254834 -10.74517,24 -24,24 v 0 C 118.74517,56 108,45.254834 108,32 Z"
                 id="react-path-233" />
            </defs>
            <mask
               id="react-mask-234"
               fill="#ffffff">
              <use
                 xlink:href="#react-path-233"
                 id="use5" />
            </mask>
            <use
               id="Hoodie"
               fill="#b7c1db"
               fill-rule="evenodd"
               xlink:href="#react-path-233" />
            <g
               id="Color/Palette/Gray-01"
               mask="url(#react-mask-234)"
               fill-rule="evenodd"
               fill="#e6e6e6">
              <rect
                 id="rect5"
                 x="0"
                 y="0"
                 width="264"
                 height="110" />
            </g>
            <path
               d="M 102,61.739053 V 110 H 95 V 58.150262 c 2.203754,1.309796 4.546769,2.510526 7,3.588791 z m 67,-3.588791 V 98.5 c 0,1.933 -1.567,3.5 -3.5,3.5 -1.933,0 -3.5,-1.567 -3.5,-3.5 V 61.739053 c 2.45323,-1.078265 4.79625,-2.278995 7,-3.588791 z"
               id="Straps"
               fill="#f4f4f4"
               fill-rule="evenodd"
               mask="url(#react-mask-234)" />
            <path
               d="M 90.960133,12.724354 C 75.90931,15.571178 65.5,21.242885 65.5,32.307692 65.5,52.020009 98.537681,68 132,68 165.46232,68 198.5,52.020009 198.5,32.307692 198.5,21.242885 188.09069,15.571178 173.03987,12.724354 182.12492,16.07446 188,21.706055 188,31.076923 188,51.468975 160.17879,68 132,68 103.82121,68 76,51.468975 76,31.076923 76,21.706055 81.875079,16.07446 90.960133,12.724354 Z"
               id="Shadow"
               fill-opacity="0.16"
               fill="#000000"
               fill-rule="evenodd"
               mask="url(#react-mask-234)" />
          </g>
          <g
             id="Face"
             transform="translate(76,82)"
             fill="#000000">
            <g
               id="Mouth/Default"
               transform="translate(2,52)"
               fill-opacity="0.7">
              <path
                 d="m 40,15 c 0,7.731987 6.268014,14 14,14 v 0 c 7.731986,0 14,-6.268013 14,-14"
                 id="Mouth" />
            </g>
            <g
               id="Nose/Default"
               transform="translate(28,40)"
               fill-opacity="0.16">
              <path
                 d="m 16,8 c 0,4.418278 5.372583,8 12,8 v 0 c 6.627417,0 12,-3.581722 12,-8"
                 id="Nose" />
            </g>
            <g
               id="Eyes/Default-😀"
               transform="translate(0,8)"
               fill-opacity="0.6">
              <circle
                 id="Eye"
                 cx="30"
                 cy="22"
                 r="6" />
              <circle
                 id="circle5"
                 cx="82"
                 cy="22"
                 r="6" />
            </g>
            <g
               id="Eyebrow/Outline/Default"
               fill-opacity="0.6">
              <g
                 id="I-Browse"
                 transform="translate(12,6)">
                <path
                   d="M 3.6302454,11.158577 C 7.545155,5.6498667 18.27792,2.5608372 27.523027,4.8311805 28.595725,5.0946055 29.678867,4.4385601 29.942292,3.3658621 30.205717,2.2931641 29.549671,1.2100224 28.476973,0.94659732 17.740363,-1.6900179 5.3120996,1.8869983 0.36975464,8.8414233 -0.27010963,9.7417829 -0.05893639,10.990381 0.84142326,11.630245 1.7417829,12.27011 2.9903811,12.058936 3.6302454,11.158577 Z"
                   id="Eyebrow"
                   fill-rule="nonzero" />
                <path
                   d="M 61.630245,11.158577 C 65.545155,5.6498667 76.27792,2.5608372 85.523027,4.8311805 86.595725,5.0946055 87.678866,4.4385601 87.942292,3.3658621 88.205717,2.2931641 87.549671,1.2100224 86.476973,0.94659732 75.740363,-1.6900179 63.3121,1.8869983 58.369755,8.8414233 c -0.639865,0.9003596 -0.428691,2.1489577 0.471668,2.7888217 0.90036,0.639865 2.148958,0.428691 2.788822,-0.471668 z"
                   id="path5"
                   fill-rule="nonzero"
                   transform="matrix(-1,0,0,1,146.00031,0)" />
              </g>
            </g>
          </g>
          <g
             id="Top"
             stroke-width="1"
             fill-rule="evenodd">
            <defs
               id="defs6">
              <rect
                 id="react-path-251"
                 x="0"
                 y="0"
                 width="264"
                 height="280" />
              <path
                 d="M 167.30886,35.006118 C 147.12109,23.306511 127.12895,25.221985 112.03689,29.029971 96.944834,32.837956 88.016824,43.651305 80.356679,59.648062 c -3.761074,7.854795 -5.990661,17.143418 -6.333622,25.833303 -0.134614,3.411902 0.325374,6.933789 1.244672,10.21899 0.337211,1.205832 2.155515,5.386635 2.654737,2.008495 0.166069,-1.124597 -0.442062,-2.676099 -0.500913,-3.871235 -0.07712,-1.568217 0.0057,-3.156828 0.112629,-4.722705 0.199892,-2.927496 0.721775,-5.799497 1.650544,-8.590263 1.327199,-3.987907 3.016638,-8.311788 5.602715,-11.676553 6.40093,-8.3275 17.481219,-8.802211 26.278819,-13.384509 -0.76338,1.405077 -3.70662,3.679679 -2.68687,5.263274 0.70419,1.093841 3.37008,0.762212 4.64283,0.72711 3.34878,-0.0916 6.71277,-0.67429 10.02062,-1.146995 5.21308,-0.745163 10.09774,-2.255211 15.00371,-4.088866 4.01644,-1.501692 8.60346,-2.892394 11.62213,-6.077638 4.87113,5.047649 11.14117,9.79409 17.40173,13.002401 5.61794,2.879356 14.67834,4.318198 18.11235,10.157812 4.06514,6.914065 2.19475,15.406711 3.43638,22.900124 0.47216,2.849603 1.54501,2.785751 2.13217,0.237021 0.9971,-4.329565 1.46791,-8.827618 1.15065,-13.278535 -0.71839,-10.047826 -4.40532,-36.453568 -24.5931,-48.153175 z"
                 id="react-path-250" />
            </defs>
            <mask
               id="react-mask-249"
               fill="#ffffff">
              <use
                 xlink:href="#react-path-251"
                 id="use6" />
            </mask>
            <g
               id="g6" />
            <g
               id="Top/Short-Hair/Short-Round"
               mask="url(#react-mask-249)">
              <g
                 transform="translate(-1)"
                 id="g9">
                <mask
                   id="react-mask-248"
                   fill="#ffffff">
                  <use
                     xlink:href="#react-path-250"
                     id="use7" />
                </mask>
                <use
                   id="Short-Hair"
                   stroke="none"
                   fill="#28354b"
                   fill-rule="evenodd"
                   xlink:href="#react-path-250" />
                <g
                   id="g8"
                   mask="url(#react-mask-248)"
                   fill="#b58143">
                  <g
                     id="g7">
                    <rect
                       x="0"
                       y="0"
                       width="264"
                       height="280"
                       id="rect7" />
                  </g>
                </g>
              </g>
            </g>
          </g>
        </g>
      </g>
    </g>
  </g>
</svg>
